public/svg-icons/mail-button.svg

<svg viewBox="0 0 28 28" xmlns="http://www.w3.org/2000/svg" xmlns:xlink="http://www.w3.org/1999/xlink"><clipPath id="a"><circle cx="14" cy="14" r="14"/></clipPath><linearGradient id="b" gradientTransform="matrix(20.99 0 0 -17.58 -302.92 113.67)" gradientUnits="userSpaceOnUse" x1="15.05" x2="14.6" y1="5.59" y2="6.13"><stop offset="0"/><stop offset="1" stop-opacity="0"/></linearGradient><circle cx="14" cy="14" fill="#f18711" r="14"/><g clip-path="url(#a)" opacity=".63"><path d="m8.07 27.32 8.68-8.68 7.31-10.34-17.94 5.7-5.55 5.55a16.39 16.39 0 0 0 7.5 7.77z" fill="url(#b)" opacity=".42"/></g><path d="m3.72 13.92 20.37-5.64-6.35 11.72-5.85-3.92 12.17-7.78-12.85 7.7-.8 4-1.55-4.43 15.2-7.27-15.48 7z" fill="#fff"/></svg>

<svg id="Ebene_1" data-name="Ebene 1" xmlns="http://www.w3.org/2000/svg" xmlns:xlink="http://www.w3.org/1999/xlink" viewBox="0 0 28 28"><defs><style>.cls-1{fill:none;}.cls-2{fill:#f18711;}.cls-3{opacity:0.63;}.cls-4{clip-path:url(#clip-path);}.cls-5{opacity:0.42;isolation:isolate;fill:url(#Unbenannter_Verlauf_2);}.cls-6{fill:#fff;}</style><clipPath id="clip-path"><circle class="cls-1" cx="14" cy="14" r="14"/></clipPath><linearGradient id="Unbenannter_Verlauf_2" x1="15.05" y1="5.59" x2="14.6" y2="6.13" gradientTransform="matrix(20.99, 0, 0, -17.58, -302.92, 113.67)" gradientUnits="userSpaceOnUse"><stop offset="0"/><stop offset="1" stop-opacity="0"/></linearGradient></defs><title>mail-button</title><g id="Gruppe_353" data-name="Gruppe 353"><circle id="Ellipse_144" data-name="Ellipse 144" class="cls-2" cx="14" cy="14" r="14"/><g id="Gruppe_109" data-name="Gruppe 109" class="cls-3"><g class="cls-4"><g id="Gruppe_108" data-name="Gruppe 108"><path id="Pfad_61" data-name="Pfad 61" class="cls-5" d="M8.07,27.32l8.68-8.68L24.06,8.3,6.12,14,.57,19.55A16.39,16.39,0,0,0,8.07,27.32Z"/></g></g></g><path id="path4718" class="cls-6" d="M3.72,13.92,24.09,8.28,17.74,20l-5.85-3.92L24.06,8.3,11.21,16l-.8,4L8.86,15.57,24.06,8.3l-15.48,7Z"/></g></svg>
